cssgg/trash-empty.svg

<svg
  width="24"
  height="24"
  viewBox="0 0 24 24"
  fill="none"
  xmlns="http://www.w3.org/2000/svg"
>
  <path
    fill-rule="evenodd"
    clip-rule="evenodd"
    d="M17 6V5C17 3.89543 16.1046 3 15 3H9C7.89543 3 7 3.89543 7 5V6H4C3.44772 6 3 6.44772 3 7C3 7.55228 3.44772 8 4 8H5V19C5 20.6569 6.34315 22 8 22H16C17.6569 22 19 20.6569 19 19V8H20C20.5523 8 21 7.55228 21 7C21 6.44772 20.5523 6 20 6H17ZM15 5H9V6H15V5ZM17 8H7V19C7 19.5523 7.44772 20 8 20H16C16.5523 20 17 19.5523 17 19V8Z"
    fill="currentColor"
  />
</svg>

<svg viewBox="0 0 24 24" xmlns="http://www.w3.org/2000/svg"><path fill-rule="evenodd" d="M17 6V5c0-1.11-.9-2-2-2H9c-1.11 0-2 .89-2 2v1H4c-.56 0-1 .44-1 1 0 .55.44 1 1 1h1v11c0 1.65 1.34 3 3 3h8c1.65 0 3-1.35 3-3V8h1c.55 0 1-.45 1-1 0-.56-.45-1-1-1h-3Zm-2-1H9v1h6V5Zm2 3H7v11c0 .55.44 1 1 1h8c.55 0 1-.45 1-1V8Z"/></svg>
